svgs/packages_names.svg

<svg xmlns="http://www.w3.org/2000/svg" viewBox="0 0 192 192"><path d="M96 58.695a36.766 36.766 0 0 0-21.734 7.124 37.298 37.298 0 0 0-13.433 18.653 37.621 37.621 0 0 0 0 23.056 37.298 37.298 0 0 0 13.433 18.653A36.766 36.766 0 0 0 96 133.305a36.766 36.766 0 0 0 21.734-7.124 37.298 37.298 0 0 0 13.433-18.653 37.621 37.621 0 0 0 0-23.056 37.298 37.298 0 0 0-13.433-18.653A36.766 36.766 0 0 0 96 58.695Z" fill="none" stroke="#000" stroke-width="12" stroke-linecap="round" stroke-linejoin="round"/><path d="M96 77.347a18.411 18.411 0 0 0-13.073 5.464A18.741 18.741 0 0 0 77.512 96c0 4.945 1.949 9.693 5.415 13.189A18.411 18.411 0 0 0 96 114.653c4.902 0 9.607-1.967 13.073-5.464A18.741 18.741 0 0 0 114.488 96c0-4.945-1.949-9.693-5.415-13.189A18.411 18.411 0 0 0 96 77.347Z" fill="none" stroke="#000" stroke-width="12" stroke-linecap="round" stroke-linejoin="round"/><path d="M96 43.773c-21.077 0-41.312 5.506-56.215 15.297C24.882 68.86 16.5 82.154 16.5 96s8.382 27.14 23.285 36.93c14.903 9.791 35.138 15.297 56.215 15.297 21.077 0 41.312-5.506 56.215-15.297C167.118 123.14 175.5 109.846 175.5 96s-8.382-27.14-23.285-36.93C137.312 49.279 117.077 43.773 96 43.773Z" fill="none" stroke="#000" stroke-width="12" stroke-linecap="round" stroke-linejoin="round"/></svg>

<svg
    xmlns="http://www.w3.org/2000/svg"
    viewBox="0 0 192 192"
    id="vector">
    <path
        id="path"
        d="M 96 58.695 C 88.192 58.695 80.582 61.19 74.266 65.819 C 67.949 70.449 63.246 76.981 60.833 84.472 C 58.42 91.963 58.42 100.037 60.833 107.528 C 63.246 115.019 67.949 121.551 74.266 126.181 C 80.582 130.81 88.192 133.305 96 133.305 C 103.808 133.305 111.418 130.81 117.734 126.181 C 124.051 121.551 128.754 115.019 131.167 107.528 C 133.58 100.037 133.58 91.963 131.167 84.472 C 128.754 76.981 124.051 70.449 117.734 65.819 C 111.418 61.19 103.808 58.695 96 58.695 Z"
        fill="none"
        stroke="#000000"
        stroke-width="12"
        stroke-linecap="round"
        stroke-linejoin="round"/>
    <path
        id="path_1"
        d="M 96 77.347 C 91.098 77.347 86.393 79.314 82.927 82.811 C 79.461 86.307 77.512 91.055 77.512 96 C 77.512 100.945 79.461 105.693 82.927 109.189 C 86.393 112.686 91.098 114.653 96 114.653 C 100.902 114.653 105.607 112.686 109.073 109.189 C 112.539 105.693 114.488 100.945 114.488 96 C 114.488 91.055 112.539 86.307 109.073 82.811 C 105.607 79.314 100.902 77.347 96 77.347 Z"
        fill="none"
        stroke="#000000"
        stroke-width="12"
        stroke-linecap="round"
        stroke-linejoin="round"/>
    <path
        id="path_2"
        d="M 96 43.773 C 74.923 43.773 54.688 49.279 39.785 59.07 C 24.882 68.86 16.5 82.154 16.5 96 C 16.5 109.846 24.882 123.14 39.785 132.93 C 54.688 142.721 74.923 148.227 96 148.227 C 117.077 148.227 137.312 142.721 152.215 132.93 C 167.118 123.14 175.5 109.846 175.5 96 C 175.5 82.154 167.118 68.86 152.215 59.07 C 137.312 49.279 117.077 43.773 96 43.773 Z"
        fill="none"
        stroke="#000000"
        stroke-width="12"
        stroke-linecap="round"
        stroke-linejoin="round"/>
</svg>
